!!!SOCIAL_FUNCTION:	dream songs
!!!PDT:	1932
!!!OTL: No_51_Song_of_the_Little_Whirlwind.krn
!!!REG: Wisconsin
!!!LANG: Non-Tone
!!!LING_GROUP: Algonquin
**kern
*staff1
=1-
*clefF4
*k[f#c#g#d#a#]
*M2/4
4r
8r
8B\
=2
4c#\
8B\L
8B\J
=3
4B\
8B\L
8B\J
=4
2B\
=5
8r
8G#\
8F#\L
8B\J
=6
[2B\
=7
4B\]
(8B\L
8G#\J)
=8
2F#\
=9
2F#\
=10
4r
8r
8B\
=11
(4B\
8F#\L)
8F#\J
=12
4F#\
8F#\L
8F#\J
=13||
*M3/4
4F#\
8r
8G#\
8F#\L
8G#\J
=14||
*M2/4
[2F#\
=15
4F#\]
(8F#\L
8D#\J)
=16
2BB/
=17
2BB/
=18
8r
8C#/
8BB/L
8C#/J
=19
4BB/
8BB/L
8BB/J
=20||
*M5/8
4BB/
8GG#/L
8FF#/
8BB/J
=21||
*M2/4
[2BB/
=22
4BB/]
8BB/L
8GG#/J
=23
2FF#/
=24
2FF#/
==
*-
